flaticon/music/balalaika.svg

<svg xmlns="http://www.w3.org/2000/svg" width="32" height="32" viewBox="0 0 24 24">
    <path d="M 9.179688 16.117188 C 9.023438 15.960938 8.773438 15.960938 8.617188 16.117188 L 5.40625 19.324219 L 5.125 19.042969 L 8.683594 15.480469 C 8.839844 15.324219 8.839844 15.070312 8.683594 14.914062 C 8.527344 14.757812 8.277344 14.757812 8.117188 14.914062 L 4.558594 18.476562 L 4.273438 18.191406 L 7.484375 14.984375 C 7.640625 14.828125 7.640625 14.574219 7.484375 14.417969 C 7.328125 14.261719 7.074219 14.261719 6.917969 14.417969 L 3.710938 17.628906 L 3.425781 17.34375 C 3.269531 17.1875 3.015625 17.1875 2.859375 17.34375 C 2.703125 17.5 2.703125 17.753906 2.859375 17.910156 L 3.144531 18.191406 L 2.859375 18.476562 C 2.703125 18.632812 2.703125 18.886719 2.859375 19.042969 C 2.9375 19.121094 3.042969 19.160156 3.144531 19.160156 C 3.246094 19.160156 3.347656 19.121094 3.425781 19.042969 L 3.710938 18.757812 L 3.992188 19.042969 L 3.710938 19.324219 C 3.554688 19.480469 3.554688 19.734375 3.710938 19.890625 C 3.789062 19.96875 3.890625 20.007812 3.992188 20.007812 C 4.09375 20.007812 4.199219 19.96875 4.277344 19.890625 L 4.558594 19.605469 L 4.839844 19.890625 L 4.558594 20.171875 C 4.402344 20.328125 4.402344 20.582031 4.558594 20.738281 C 4.636719 20.816406 4.738281 20.855469 4.839844 20.855469 C 4.945312 20.855469 5.046875 20.816406 5.125 20.738281 L 5.40625 20.457031 L 5.691406 20.738281 C 5.769531 20.816406 5.871094 20.855469 5.972656 20.855469 C 6.074219 20.855469 6.179688 20.816406 6.253906 20.738281 C 6.414062 20.582031 6.414062 20.328125 6.253906 20.171875 L 5.972656 19.890625 L 9.183594 16.679688 C 9.339844 16.523438 9.339844 16.273438 9.179688 16.117188 Z M 7 13.199219 C 5.125 13.199219 3.601562 14.722656 3.601562 16.597656 L 4.402344 16.597656 C 4.402344 15.164062 5.566406 13.996094 7 13.996094 C 8.433594 13.996094 9.601562 15.164062 9.601562 16.597656 C 9.601562 18.03125 8.433594 19.199219 7 19.199219 L 7 20 C 8.875 20 10.402344 18.472656 10.402344 16.597656 C 10.402344 14.722656 8.875 13.199219 7 13.199219 Z M 10.742188 11.839844 L 15.980469 6.601562 L 16.546875 7.167969 L 11.308594 12.40625 Z M 12.160156 13.257812 L 11.59375 12.691406 L 16.832031 7.453125 L 17.398438 8.019531 Z M 23.851562 2.023438 L 21.976562 0.148438 C 21.828125 0 21.601562 -0.0429688 21.410156 0.0429688 L 19.773438 0.777344 L 19.09375 0.0976562 L 18.527344 0.664062 L 18.992188 1.128906 L 18.328125 1.425781 C 18.039062 1.554688 17.773438 1.730469 17.535156 1.933594 L 16.832031 1.226562 L 16.265625 1.792969 L 16.988281 2.515625 C 16.714844 2.886719 16.511719 3.308594 16.40625 3.765625 C 16.347656 4.03125 16.320312 4.300781 16.324219 4.5625 L 12.777344 8.109375 C 10.882812 7.320312 8.722656 7.578125 7.070312 8.816406 L 6.921875 8.925781 L 6.910156 9.109375 C 6.867188 9.738281 6.601562 10.328125 6.15625 10.769531 C 5.402344 11.523438 4.234375 11.738281 3.257812 11.300781 L 3.035156 11.203125 L 2.84375 11.351562 C 2.535156 11.59375 2.269531 11.828125 2.050781 12.046875 C 0.730469 13.371094 0 15.128906 0 17 C 0 18.867188 0.726562 20.625 2.050781 21.949219 C 3.375 23.273438 5.132812 24 7 24 C 8.871094 24 10.628906 23.273438 11.953125 21.949219 C 12.171875 21.730469 12.40625 21.460938 12.648438 21.152344 L 12.796875 20.964844 L 12.699219 20.742188 C 12.257812 19.765625 12.472656 18.597656 13.230469 17.84375 C 13.671875 17.398438 14.261719 17.132812 14.890625 17.089844 L 15.070312 17.078125 L 15.179688 16.929688 C 16.421875 15.277344 16.679688 13.117188 15.886719 11.222656 L 19.433594 7.675781 C 19.453125 7.675781 19.472656 7.679688 19.488281 7.679688 C 19.734375 7.679688 19.984375 7.648438 20.234375 7.59375 C 20.691406 7.488281 21.113281 7.285156 21.480469 7.011719 L 22.207031 7.734375 L 22.769531 7.167969 L 22.066406 6.464844 C 22.269531 6.226562 22.445312 5.960938 22.574219 5.671875 L 22.871094 5.007812 L 23.335938 5.472656 L 23.902344 4.90625 L 23.222656 4.226562 L 23.957031 2.589844 C 24.042969 2.398438 24 2.171875 23.851562 2.023438 Z M 14.644531 16.308594 C 13.894531 16.402344 13.199219 16.742188 12.664062 17.277344 C 11.734375 18.207031 11.429688 19.609375 11.875 20.839844 C 11.703125 21.046875 11.539062 21.230469 11.386719 21.382812 C 10.214844 22.554688 8.65625 23.199219 7 23.199219 C 5.34375 23.199219 3.789062 22.554688 2.617188 21.382812 C 1.445312 20.210938 0.800781 18.65625 0.800781 17 C 0.800781 15.34375 1.445312 13.785156 2.617188 12.613281 C 2.769531 12.460938 2.953125 12.296875 3.160156 12.125 C 4.390625 12.570312 5.792969 12.265625 6.722656 11.335938 C 7.257812 10.800781 7.597656 10.105469 7.691406 9.355469 C 9.003906 8.441406 10.65625 8.214844 12.160156 8.730469 L 8.761719 12.125 L 11.875 15.234375 L 15.269531 11.839844 C 15.785156 13.339844 15.558594 14.996094 14.644531 16.308594 Z M 18.472656 7.507812 L 11.875 14.105469 L 9.894531 12.125 L 16.492188 5.527344 C 16.492188 5.535156 16.496094 5.542969 16.5 5.550781 C 16.511719 5.582031 16.523438 5.609375 16.535156 5.640625 C 16.5625 5.714844 16.59375 5.785156 16.625 5.855469 C 16.644531 5.890625 16.660156 5.925781 16.679688 5.960938 C 16.714844 6.027344 16.753906 6.09375 16.792969 6.160156 C 16.8125 6.1875 16.828125 6.21875 16.847656 6.25 C 16.910156 6.339844 16.976562 6.429688 17.046875 6.515625 C 17.113281 6.59375 17.183594 6.671875 17.253906 6.746094 C 17.328125 6.816406 17.40625 6.886719 17.484375 6.953125 C 17.554688 7.011719 17.632812 7.070312 17.707031 7.125 C 17.734375 7.144531 17.765625 7.160156 17.792969 7.179688 C 17.84375 7.210938 17.894531 7.242188 17.945312 7.273438 C 17.976562 7.289062 18.011719 7.304688 18.046875 7.324219 C 18.09375 7.347656 18.140625 7.375 18.191406 7.398438 C 18.226562 7.414062 18.257812 7.425781 18.292969 7.4375 C 18.34375 7.460938 18.398438 7.484375 18.453125 7.5 C 18.457031 7.503906 18.464844 7.507812 18.472656 7.507812 Z M 20.054688 6.8125 C 19.792969 6.875 19.53125 6.886719 19.277344 6.867188 C 19.167969 6.855469 19.058594 6.839844 18.957031 6.816406 C 18.941406 6.8125 18.933594 6.808594 18.917969 6.804688 C 18.828125 6.78125 18.738281 6.753906 18.648438 6.71875 C 18.617188 6.707031 18.585938 6.695312 18.554688 6.679688 C 18.484375 6.648438 18.414062 6.613281 18.347656 6.578125 C 18.320312 6.5625 18.289062 6.546875 18.261719 6.527344 C 18.171875 6.472656 18.089844 6.414062 18.007812 6.347656 C 18.003906 6.34375 18 6.339844 17.996094 6.339844 C 17.9375 6.289062 17.878906 6.234375 17.820312 6.179688 C 17.765625 6.121094 17.710938 6.0625 17.660156 6.003906 C 17.589844 5.917969 17.53125 5.828125 17.472656 5.738281 C 17.457031 5.710938 17.441406 5.683594 17.425781 5.652344 C 17.386719 5.585938 17.351562 5.515625 17.320312 5.445312 C 17.308594 5.414062 17.292969 5.382812 17.28125 5.351562 C 17.246094 5.261719 17.214844 5.167969 17.195312 5.078125 C 17.191406 5.066406 17.1875 5.054688 17.183594 5.042969 C 17.160156 4.941406 17.144531 4.832031 17.136719 4.722656 C 17.113281 4.46875 17.128906 4.207031 17.1875 3.945312 C 17.371094 3.15625 17.917969 2.484375 18.65625 2.15625 L 21.554688 0.855469 L 23.144531 2.449219 L 21.84375 5.34375 C 21.515625 6.082031 20.84375 6.628906 20.054688 6.8125 Z M 17.964844 4.621094 L 21.074219 1.511719 L 21.640625 2.078125 L 18.527344 5.1875 Z M 18.8125 5.472656 L 21.921875 2.359375 L 22.488281 2.925781 L 19.378906 6.035156 Z M 18.8125 5.472656"/>
</svg>

<svg xmlns="http://www.w3.org/2000/svg" width="32" height="32" viewBox="0 0 24 24">
    <path d="M9.18 16.117a.396.396 0 0 0-.563 0l-3.21 3.207-.282-.281 3.559-3.563a.4.4 0 0 0-.567-.566L4.56 18.477l-.286-.286 3.211-3.207a.4.4 0 0 0-.566-.566l-3.207 3.21-.285-.284a.4.4 0 0 0-.567.566l.286.281-.286.286a.4.4 0 0 0 .567.566l.285-.285.281.285-.281.281a.4.4 0 0 0 .566.567l.282-.286.28.286-.28.28a.4.4 0 0 0 .566.567l.281-.281.285.281a.396.396 0 0 0 .563 0 .394.394 0 0 0 0-.566l-.281-.281 3.21-3.211a.393.393 0 0 0-.003-.563zM7 13.2a3.4 3.4 0 0 0-3.398 3.399h.8A2.602 2.602 0 0 1 7 13.996a2.606 2.606 0 0 1 2.602 2.602A2.606 2.606 0 0 1 7 19.199V20a3.408 3.408 0 0 0 3.402-3.402A3.404 3.404 0 0 0 7 13.199zm3.742-1.36l5.238-5.237.567.566-5.238 5.238zm1.418 1.419l-.566-.567 5.238-5.238.566.567zM23.852 2.023L21.977.148a.509.509 0 0 0-.567-.105l-1.637.734-.68-.68-.566.567.465.465-.664.297c-.289.129-.555.304-.793.508l-.703-.707-.566.566.722.723a3.397 3.397 0 0 0-.582 1.25 3.474 3.474 0 0 0-.082.796L12.777 8.11a5.782 5.782 0 0 0-5.707.707l-.148.11-.012.183a2.58 2.58 0 0 1-.754 1.66 2.615 2.615 0 0 1-2.898.532l-.223-.098-.191.149a8.887 8.887 0 0 0-.793.695A6.971 6.971 0 0 0 0 17c0 1.867.727 3.625 2.05 4.95A6.953 6.953 0 0 0 7 24a6.955 6.955 0 0 0 4.953-2.05 8.98 8.98 0 0 0 .695-.798l.149-.187-.098-.223a2.602 2.602 0 0 1 .531-2.898 2.58 2.58 0 0 1 1.66-.754l.18-.012.11-.148a5.763 5.763 0 0 0 .707-5.707l3.547-3.547c.02 0 .039.004.054.004a3.35 3.35 0 0 0 1.992-.668l.727.722.563-.566-.704-.703c.204-.238.38-.504.508-.793l.297-.664.465.465.566-.567-.68-.68.735-1.636a.509.509 0 0 0-.105-.567zM14.645 16.31a3.393 3.393 0 0 0-1.98.968 3.417 3.417 0 0 0-.79 3.563c-.172.207-.336.39-.488.543A6.164 6.164 0 0 1 7 23.199a6.155 6.155 0 0 1-4.383-1.816A6.155 6.155 0 0 1 .801 17c0-1.656.644-3.215 1.816-4.387.153-.152.336-.316.543-.488 1.23.445 2.633.14 3.563-.79.535-.534.875-1.23.968-1.98a4.976 4.976 0 0 1 4.47-.625l-3.4 3.395 3.114 3.11 3.395-3.395c.515 1.5.289 3.156-.625 4.469zm3.828-8.801l-6.598 6.597-1.98-1.98 6.597-6.598c0 .008.004.016.008.024l.035.09c.027.074.059.144.09.214.02.036.035.07.055.106.035.066.074.133.113.2.02.027.035.058.055.089.062.09.129.18.199.266.066.078.137.156.207.23.074.07.152.14.23.207.07.059.149.117.223.172.027.02.059.035.086.055l.152.093c.032.016.067.032.102.051.047.024.094.051.144.074.036.016.067.028.102.04.05.023.105.046.16.062a.03.03 0 0 0 .02.008zm1.582-.696a2.505 2.505 0 0 1-1.098.004c-.016-.003-.023-.007-.039-.011-.09-.024-.18-.051-.27-.086-.03-.012-.062-.024-.093-.04a3.392 3.392 0 0 1-.207-.1c-.028-.016-.059-.032-.086-.052a2.294 2.294 0 0 1-.254-.18c-.004-.003-.008-.007-.012-.007-.058-.05-.117-.106-.176-.16a6.53 6.53 0 0 1-.16-.176c-.07-.086-.129-.176-.187-.266a1.706 1.706 0 0 1-.047-.086 2.062 2.062 0 0 1-.106-.207c-.011-.03-.027-.062-.039-.093a1.84 1.84 0 0 1-.086-.274l-.011-.035a2.108 2.108 0 0 1-.047-.32 2.501 2.501 0 0 1 .05-.778c.184-.789.731-1.46 1.47-1.789l2.898-1.3 1.59 1.593-1.301 2.895c-.328.738-1 1.285-1.79 1.468zm-2.09-2.19l3.11-3.11.566.566-3.114 3.11zm.848.85l3.109-3.113.566.567-3.11 3.11zm0 0"/>
</svg>
